elements/app-hax/lib/assets/images/Login.svg

<svg xmlns="http://www.w3.org/2000/svg" fill="none" width="310" height="60" viewBox="0 0 310 60"><path d="M5 5h300v50H5z" fill="#BDD6A9"/><path d="M0 15h5v30H0V15ZM5 5h10v5h-5v5H5V5Zm0 50h10v-5h-5v-5H5v10Zm305-40h-5v30h5V15Zm-5-10h-10v5h5v5h5V5Zm0 50h-10v-5h5v-5h5v10ZM15 0h280v5H15V0Zm0 55h280v5H15v-5Z" fill="#000"/></svg>

<svg width="310" height="60" viewBox="0 0 310 60" fill="none" xmlns="http://www.w3.org/2000/svg">
<rect x="5" y="5" width="300" height="50" fill="#BDD6A9"/>
<path d="M0 15H5V45H0V15Z" fill="black"/>
<path d="M5 5H15V10H10V15H5V5Z" fill="black"/>
<path d="M5 55H15V50H10V45H5V55Z" fill="black"/>
<path d="M310 15H305V45H310V15Z" fill="black"/>
<path d="M305 5H295V10H300V15H305V5Z" fill="black"/>
<path d="M305 55H295V50H300V45H305V55Z" fill="black"/>
<path d="M15 0H295V5H15V0Z" fill="black"/>
<path d="M15 55H295V60H15V55Z" fill="black"/>
</svg>
